img/refresh.svg

<?xml version="1.0" encoding="UTF-8" standalone="no"?>
<svg width="16px" height="13px" viewBox="0 0 16 13" version="1.1" xmlns="http://www.w3.org/2000/svg" xmlns:xlink="http://www.w3.org/1999/xlink" xmlns:sketch="http://www.bohemiancoding.com/sketch/ns">
    <!-- Generator: Sketch 3.0.4 (8053) - http://www.bohemiancoding.com/sketch -->
    <title>refresh</title>
    <desc>Created with Sketch.</desc>
    <defs></defs>
    <g id="Page-1" stroke="none" stroke-width="1" fill="none" fill-rule="evenodd" sketch:type="MSPage">
        <g id="refresh" sketch:type="MSArtboardGroup" fill="#A25CC6">
            <g id="Group" sketch:type="MSLayerGroup">
                <path d="M10.9066667,10.54404 C10.0250667,11.14568 8.99413333,11.4478 7.93973333,11.43376 C7.80053333,11.4322 7.66186667,11.42544 7.52533333,11.41348 C7.46933333,11.40828 7.41333333,11.39996 7.35733333,11.39268 C7.2496,11.37916 7.1424,11.3646 7.0368,11.34484 C6.97226667,11.33288 6.90933333,11.31676 6.84533333,11.3022 C6.74293333,11.2788 6.64,11.25488 6.53973333,11.22576 C6.4912,11.21172 6.44426667,11.19456 6.39626667,11.17896 C6.28053333,11.14152 6.16533333,11.10252 6.05333333,11.05676 C6.02773333,11.04636 6.0032,11.03492 5.97813333,11.024 C5.8464,10.96836 5.71733333,10.90856 5.592,10.84304 C5.58666667,10.83992 5.5808,10.8368 5.57546667,10.83368 C5.15093333,10.60644 4.7632,10.32304 4.42293333,9.9918 C4.41706667,9.98608 4.41173333,9.98036 4.4064,9.97464 C4.3008,9.87116 4.2,9.763 4.104,9.65068 C4.0832,9.62676 4.06453333,9.60024 4.04426667,9.5758 C3.35093333,8.7308 2.93333333,7.66116 2.93333333,6.49792 L4.26666667,6.49792 L2.13333333,3.37792 L0,6.49792 L1.33333333,6.49792 C1.33333333,7.86552 1.77066667,9.13328 2.5136,10.18108 C2.5232,10.19564 2.52906667,10.21176 2.5392,10.2258 C2.616,10.33292 2.70133333,10.43224 2.784,10.53416 C2.81493333,10.57212 2.84373333,10.61164 2.87573333,10.6496 C2.99786667,10.79312 3.1264,10.92832 3.2592,11.0604 C3.27146667,11.07288 3.2832,11.0864 3.296,11.09836 C3.74186667,11.5336 4.24533333,11.9002 4.7936,12.19296 C4.80853333,12.20128 4.82293333,12.2096 4.83786667,12.2174 C4.99573333,12.30008 5.15786667,12.37548 5.3232,12.44568 C5.36426667,12.46284 5.40426667,12.48156 5.44533333,12.49924 C5.58666667,12.55592 5.73066667,12.60584 5.87626667,12.65316 C5.94506667,12.67604 6.01333333,12.69996 6.0832,12.72024 C6.21066667,12.75716 6.3408,12.78836 6.472,12.818 C6.55946667,12.83776 6.64586667,12.85908 6.7344,12.87572 C6.77066667,12.883 6.80586667,12.8934 6.84213333,12.89964 C6.96586667,12.92096 7.0896,12.9324 7.21333333,12.94748 C7.25813333,12.95268 7.30186667,12.95996 7.34666667,12.96464 C7.5696,12.98648 7.79146667,13 8.0128,13 C9.368,13 10.6901333,12.59648 11.824,11.82116 C12.1866667,11.57364 12.2746667,11.08796 12.0208,10.7354 C11.7669333,10.3818 11.2677333,10.29652 10.9066667,10.54404 L10.9066667,10.54404 Z" id="Shape" sketch:type="MSShapeGroup"></path>
                <path d="M14.6672,6.49792 C14.6666667,5.13448 14.232,3.86932 13.4928,2.8236 C13.4821333,2.80592 13.4746667,2.78772 13.4624,2.77108 C13.3706667,2.64316 13.2704,2.52408 13.1706667,2.40448 C13.1589333,2.38992 13.1482667,2.37484 13.136,2.3608 C12.4597333,1.56 11.6101333,0.94172 10.6474667,0.53716 C10.6208,0.52572 10.5946667,0.51376 10.5685333,0.50284 C10.4149333,0.44044 10.2576,0.38584 10.0986667,0.33488 C10.0421333,0.31616 9.9856,0.2964 9.928,0.27924 C9.78986667,0.23868 9.65013333,0.20592 9.5088,0.17368 C9.43093333,0.156 9.35306667,0.13676 9.27413333,0.12168 C9.23573333,0.1144 9.1984,0.10296 9.16,0.0962 C9.0544,0.078 8.9488,0.0702 8.8432,0.0572 C8.77013333,0.04836 8.69866667,0.03692 8.62506667,0.03016 C8.448,0.01404 8.272,0.00728 8.096,0.00416 C8.06293333,0.00468 8.03306667,0 8.00053333,0 C7.99466667,0 7.98933333,0.00156 7.98346667,0.00208 C6.62986667,0.00312 5.3104,0.40144 4.1776,1.1752 C3.81546667,1.4222 3.72746667,1.9084 3.9808,2.26148 C4.2336,2.61456 4.7328,2.70036 5.09493333,2.45284 C5.9696,1.85536 6.99093333,1.55272 8.03786667,1.56208 C8.18773333,1.56312 8.33706667,1.5704 8.4832,1.58392 C8.528,1.58808 8.5728,1.59484 8.6176,1.60056 C8.73813333,1.6146 8.8576,1.63124 8.97493333,1.6536 C9.0272,1.664 9.07786667,1.67648 9.12906667,1.68792 C9.2448,1.7134 9.36,1.74096 9.47253333,1.77424 C9.50826667,1.78516 9.54346667,1.79764 9.5792,1.80908 C9.70773333,1.85016 9.83466667,1.89436 9.95893333,1.9448 C9.97173333,1.95 9.98453333,1.95572 9.9968,1.96144 C10.7418667,2.27448 11.3962667,2.75548 11.9066667,3.35764 C11.9098667,3.36128 11.9130667,3.36596 11.9162667,3.3696 C12.6346667,4.22188 13.0666667,5.31128 13.0672,6.49844 L11.7333333,6.49844 L13.8672,9.61844 L16,6.49844 L14.6672,6.49844 L14.6672,6.49792 Z" id="Shape" sketch:type="MSShapeGroup"></path>
            </g>
        </g>
    </g>
</svg>

<svg viewBox="0 0 16 13" xmlns="http://www.w3.org/2000/svg"><g fill="#a25cc6" fill-rule="evenodd"><path d="m10.907 10.544c-.882.602-1.913.904-2.967.89-.139-.002-.278-.008-.414-.02-.056-.005-.112-.014-.168-.021-.108-.014-.215-.028-.321-.048-.065-.012-.127-.028-.191-.043-.102-.023-.205-.047-.306-.076-.049-.014-.095-.031-.143-.047-.116-.037-.231-.076-.343-.122-.026-.01-.05-.022-.075-.033-.132-.056-.261-.115-.386-.181-.005-.003-.011-.006-.017-.009-.425-.227-.812-.511-1.153-.842-.006-.006-.011-.011-.017-.017-.106-.103-.206-.212-.302-.324-.021-.024-.039-.05-.06-.075-.693-.845-1.111-1.915-1.111-3.078h1.333l-2.133-3.12-2.133 3.12h1.333c0 1.368.437 2.635 1.18 3.683.01.015.015.031.026.045.077.107.162.206.245.308.031.038.06.077.092.115.122.144.251.279.383.411.012.012.024.026.037.038.446.435.949.802 1.498 1.095.015.008.029.017.044.024.158.083.32.158.485.228.041.017.081.036.122.054.141.057.285.107.431.154.069.023.137.047.207.067.127.037.258.068.389.098.087.02.174.041.262.058.036.007.071.018.108.024.124.021.247.033.371.048.045.005.089.012.133.017.223.022.445.035.666.035 1.355 0 2.677-.404 3.811-1.179.363-.248.451-.733.197-1.086-.254-.354-.753-.439-1.114-.191"/><path d="m14.667 6.498c-.001-1.363-.435-2.629-1.174-3.674-.011-.018-.018-.036-.03-.053-.092-.128-.192-.247-.292-.367-.012-.015-.022-.03-.035-.044-.676-.801-1.526-1.419-2.489-1.824-.027-.011-.053-.023-.079-.034-.154-.062-.311-.117-.47-.168-.057-.019-.113-.038-.171-.056-.138-.041-.278-.073-.419-.106-.078-.018-.156-.037-.235-.052-.038-.007-.076-.019-.114-.025-.106-.018-.211-.026-.317-.039-.073-.009-.145-.02-.218-.027-.177-.016-.353-.023-.529-.026-.033.001-.063-.004-.095-.004-.006 0-.011.002-.017.002-1.354.001-2.673.399-3.806 1.173-.362.247-.45.733-.197 1.086.253.353.752.439 1.114.191.875-.597 1.896-.9 2.943-.891.15.001.299.008.445.022.045.004.09.011.134.017.121.014.24.031.357.053.052.01.103.023.154.034.116.025.231.053.343.086.036.011.071.023.107.035.129.041.255.085.38.136.013.005.026.011.038.017.745.313 1.399.794 1.91 1.396.003.004.006.008.01.012.718.852 1.15 1.942 1.151 3.129h-1.334l2.134 3.12 2.133-3.12h-1.333"/></g></svg>
